icons/svg/vector-arrange-above.svg

<svg xmlns="http://www.w3.org/2000/svg" version="1.1" baseProfile="full" width="24" height="24" viewBox="0 0 24.00 24.00" xml:space="preserve"><path fill="#000" fill-opacity="1" stroke-width="1.333" stroke-linejoin="miter" d="M3 1c-1.108 0-2 .892-2 2v11c0 1.108.892 2 2 2h11c1.108 0 2-.892 2-2V3c0-1.108-.892-2-2-2H3zm0 2h11v11H3V3zm15 4v2h2v11H9v-2H7v2c0 1.108.892 2 2 2h11c1.108 0 2-.892 2-2V9c0-1.108-.892-2-2-2h-2z"/></svg>

﻿<?xml version="1.0" encoding="utf-8"?>
<!DOCTYPE svg PUBLIC "-//W3C//DTD SVG 1.1//EN" "http://www.w3.org/Graphics/SVG/1.1/DTD/svg11.dtd">
<svg xmlns="http://www.w3.org/2000/svg" xmlns:xlink="http://www.w3.org/1999/xlink" version="1.1" baseProfile="full" width="24" height="24" viewBox="0 0 24.00 24.00" enable-background="new 0 0 24.00 24.00" xml:space="preserve">
	<path fill="#000000" fill-opacity="1" stroke-width="1.33333" stroke-linejoin="miter" d="M 3,1C 1.89199,1 1,1.892 1,3L 1,14C 1,15.108 1.89199,16 3,16C 6.66667,16 10.3333,16 14,16C 15.108,16 16,15.108 16,14C 16,10.3333 16,6.6667 16,3C 16,1.892 15.108,1 14,1L 3,1 Z M 3,3L 14,3L 14,14L 3,14L 3,3 Z M 18,7L 18,9L 20,9L 20,20L 9,20L 9,18L 7,18L 7,20C 7,21.108 7.89199,22 9,22L 20,22C 21.108,22 22,21.108 22,20L 22,9C 22,7.892 21.108,7 20,7L 18,7 Z "/>
</svg>
